;Marlin(Repetier) G-CODE GENERATED BY FLATCAM v8.915 - www.flatcam.org - Version Date:    2019/05/1

;Name: test_layout-Top.gbr_iso2_cnc
;Type: G-code from Geometry
;Units: MM

;Created on Thursday, 08 August 2019 at 18:59

;TOOL DIAMETER: 0.1 mm

;Feedrate: 1000.0 mm/min
;Feedrate_Z: 3.0 mm/min
;Feedrate rapids 2400.0 mm/min

;Z_Cut: -0.1 mm
;Z_Move: 0.1 mm
;Z Toolchange: 0.5 mm
;X,Y Toolchange: 0.0000, 0.0000 mm
;Z Start: None mm
;Z End: 0.5 mm
;Steps per circle: 64
;Postprocessor Geometry: marlin

;X range:    0.3170 ...   49.7972  mm
;Y range:    0.3043 ...   49.9247  mm

;Spindle Speed: None RPM

G92 X0 Y0 Z0
G0 Z6
G28 Y X
G0 Y32
G0 X81
G0 Z0
G92 X0 Y0 Z0

G21
G90

G1 F1000.00
G0 Z0.1000 F2400.00

M106
G0 X0.3173 Y0.5366 F2400.00
G1 F3.00
G1 Z-0.1000 F1000.00
G1 F1000.00
G1 X0.3197 Y0.5097 F1000.00
G1 X0.3245 Y0.4853 F1000.00
G1 X0.3327 Y0.4594 F1000.00
G1 X0.3376 Y0.4474 F1000.00
G1 X0.3444 Y0.4333 F1000.00
G1 X0.3582 Y0.4102 F1000.00
G1 X0.3684 Y0.3961 F1000.00
G1 X0.3874 Y0.3747 F1000.00
G1 X0.4088 Y0.3557 F1000.00
G1 X0.4229 Y0.3455 F1000.00
G1 X0.4460 Y0.3317 F1000.00
G1 X0.4601 Y0.3249 F1000.00
G1 X0.4853 Y0.3154 F1000.00
G1 X0.5114 Y0.3088 F1000.00
G1 X0.5332 Y0.3056 F1000.00
G1 X0.5571 Y0.3043 F1000.00
G1 X49.5571 Y0.3043 F1000.00
G1 X49.5810 Y0.3056 F1000.00
G1 X49.6028 Y0.3088 F1000.00
G1 X49.6181 Y0.3123 F1000.00
G1 X49.6437 Y0.3206 F1000.00
G1 X49.6682 Y0.3317 F1000.00
G1 X49.6824 Y0.3396 F1000.00
G1 X49.7054 Y0.3557 F1000.00
G1 X49.7268 Y0.3747 F1000.00
G1 X49.7458 Y0.3961 F1000.00
G1 X49.7560 Y0.4102 F1000.00
G1 X49.7698 Y0.4333 F1000.00
G1 X49.7766 Y0.4474 F1000.00
G1 X49.7861 Y0.4726 F1000.00
G1 X49.7927 Y0.4987 F1000.00
G1 X49.7959 Y0.5205 F1000.00
G1 X49.7972 Y0.5444 F1000.00
G1 X49.7972 Y49.5444 F1000.00
G1 X49.7959 Y49.5683 F1000.00
G1 X49.7927 Y49.5901 F1000.00
G1 X49.7861 Y49.6162 F1000.00
G1 X49.7766 Y49.6414 F1000.00
G1 X49.7698 Y49.6555 F1000.00
G1 X49.7560 Y49.6786 F1000.00
G1 X49.7458 Y49.6927 F1000.00
G1 X49.7268 Y49.7141 F1000.00
G1 X49.7054 Y49.7331 F1000.00
G1 X49.6913 Y49.7433 F1000.00
G1 X49.6682 Y49.7571 F1000.00
G1 X49.6541 Y49.7639 F1000.00
G1 X49.6421 Y49.7688 F1000.00
G1 X49.6162 Y49.7770 F1000.00
G1 X49.5918 Y49.7818 F1000.00
G1 X49.5762 Y49.7836 F1000.00
G1 X49.5571 Y49.7845 F1000.00
G1 X49.0493 Y49.7842 F1000.00
G1 X49.0224 Y49.7818 F1000.00
G1 X48.9980 Y49.7770 F1000.00
G1 X48.9721 Y49.7688 F1000.00
G1 X48.9601 Y49.7639 F1000.00
G1 X48.9318 Y49.7492 F1000.00
G1 X48.9088 Y49.7331 F1000.00
G1 X48.8874 Y49.7141 F1000.00
G1 X48.8745 Y49.7001 F1000.00
G1 X48.8582 Y49.6786 F1000.00
G1 X48.8444 Y49.6555 F1000.00
G1 X48.8327 Y49.6294 F1000.00
G1 X48.8245 Y49.6035 F1000.00
G1 X48.8197 Y49.5791 F1000.00
G1 X48.8173 Y49.5522 F1000.00
G1 X48.8183 Y49.5205 F1000.00
G1 X48.8215 Y49.4987 F1000.00
G1 X48.8281 Y49.4726 F1000.00
G1 X48.8376 Y49.4474 F1000.00
G1 X48.8523 Y49.4191 F1000.00
G1 X48.8684 Y49.3961 F1000.00
G1 X48.8874 Y49.3747 F1000.00
G1 X48.9014 Y49.3618 F1000.00
G1 X48.9137 Y49.3520 F1000.00
G1 X48.9318 Y49.3396 F1000.00
G1 X48.9601 Y49.3249 F1000.00
G1 X48.9721 Y49.3200 F1000.00
G1 X48.9980 Y49.3118 F1000.00
G1 X49.0114 Y49.3088 F1000.00
G1 X49.0332 Y49.3056 F1000.00
G1 X49.0571 Y49.3043 F1000.00
G1 X49.3170 Y49.3043 F1000.00
G1 X49.3170 Y49.2845 F1000.00
G1 X48.5571 Y49.2845 F1000.00
G1 X48.5332 Y49.2832 F1000.00
G1 X48.5114 Y49.2800 F1000.00
G1 X48.4961 Y49.2765 F1000.00
G1 X48.4721 Y49.2688 F1000.00
G1 X48.4460 Y49.2571 F1000.00
G1 X48.4318 Y49.2492 F1000.00
G1 X48.4088 Y49.2331 F1000.00
G1 X48.3931 Y49.2195 F1000.00
G1 X48.3820 Y49.2084 F1000.00
G1 X48.3684 Y49.1927 F1000.00
G1 X48.3582 Y49.1786 F1000.00
G1 X48.3444 Y49.1555 F1000.00
G1 X48.3376 Y49.1414 F1000.00
G1 X48.3327 Y49.1294 F1000.00
G1 X48.3245 Y49.1035 F1000.00
G1 X48.3215 Y49.0901 F1000.00
G1 X48.3183 Y49.0683 F1000.00
G1 X48.3170 Y49.0444 F1000.00
G1 X48.3183 Y49.0205 F1000.00
G1 X48.3215 Y48.9987 F1000.00
G1 X48.3245 Y48.9853 F1000.00
G1 X48.3327 Y48.9594 F1000.00
G1 X48.3376 Y48.9474 F1000.00
G1 X48.3444 Y48.9333 F1000.00
G1 X48.3582 Y48.9102 F1000.00
G1 X48.3684 Y48.8961 F1000.00
G1 X48.3874 Y48.8747 F1000.00
G1 X48.4088 Y48.8557 F1000.00
G1 X48.4229 Y48.8455 F1000.00
G1 X48.4460 Y48.8317 F1000.00
G1 X48.4601 Y48.8249 F1000.00
G1 X48.4721 Y48.8200 F1000.00
G1 X48.4980 Y48.8118 F1000.00
G1 X48.5114 Y48.8088 F1000.00
G1 X48.5332 Y48.8056 F1000.00
G1 X48.5571 Y48.8043 F1000.00
G1 X49.3170 Y48.8043 F1000.00
G1 X49.3170 Y48.7845 F1000.00
G1 X49.0571 Y48.7845 F1000.00
G1 X49.0332 Y48.7832 F1000.00
G1 X49.0114 Y48.7800 F1000.00
G1 X48.9853 Y48.7734 F1000.00
G1 X48.9601 Y48.7639 F1000.00
G1 X48.9460 Y48.7571 F1000.00
G1 X48.9318 Y48.7492 F1000.00
G1 X48.9137 Y48.7368 F1000.00
G1 X48.8931 Y48.7195 F1000.00
G1 X48.8820 Y48.7084 F1000.00
G1 X48.8684 Y48.6927 F1000.00
G1 X48.8523 Y48.6697 F1000.00
G1 X48.8376 Y48.6414 F1000.00
G1 X48.8327 Y48.6294 F1000.00
G1 X48.8250 Y48.6054 F1000.00
G1 X48.8197 Y48.5791 F1000.00
G1 X48.8183 Y48.5683 F1000.00
G1 X48.8170 Y48.5444 F1000.00
G1 X48.8183 Y48.5205 F1000.00
G1 X48.8197 Y48.5097 F1000.00
G1 X48.8250 Y48.4834 F1000.00
G1 X48.8327 Y48.4594 F1000.00
G1 X48.8376 Y48.4474 F1000.00
G1 X48.8523 Y48.4191 F1000.00
G1 X48.8684 Y48.3961 F1000.00
G1 X48.8820 Y48.3804 F1000.00
G1 X48.8931 Y48.3693 F1000.00
G1 X48.9137 Y48.3520 F1000.00
G1 X48.9318 Y48.3396 F1000.00
G1 X48.9460 Y48.3317 F1000.00
G1 X48.9601 Y48.3249 F1000.00
G1 X48.9853 Y48.3154 F1000.00
G1 X49.0114 Y48.3088 F1000.00
G1 X49.0332 Y48.3056 F1000.00
G1 X49.0571 Y48.3043 F1000.00
G1 X49.3170 Y48.3043 F1000.00
G1 X49.3170 Y48.2845 F1000.00
G1 X48.5571 Y48.2845 F1000.00
G1 X48.5332 Y48.2832 F1000.00
G1 X48.5114 Y48.2800 F1000.00
G1 X48.4980 Y48.2770 F1000.00
G1 X48.4721 Y48.2688 F1000.00
G1 X48.4601 Y48.2639 F1000.00
G1 X48.4318 Y48.2492 F1000.00
G1 X48.4137 Y48.2368 F1000.00
G1 X48.4014 Y48.2270 F1000.00
G1 X48.3874 Y48.2141 F1000.00
G1 X48.3684 Y48.1927 F1000.00
G1 X48.3582 Y48.1786 F1000.00
G1 X48.3499 Y48.1654 F1000.00
G1 X48.3376 Y48.1414 F1000.00
G1 X48.3327 Y48.1294 F1000.00
G1 X48.3250 Y48.1054 F1000.00
G1 X48.3215 Y48.0901 F1000.00
G1 X48.3183 Y48.0683 F1000.00
G1 X48.3170 Y48.0444 F1000.00
G1 X48.3183 Y48.0205 F1000.00
G1 X48.3215 Y47.9987 F1000.00
G1 X48.3250 Y47.9834 F1000.00
G1 X48.3327 Y47.9594 F1000.00
G1 X48.3376 Y47.9474 F1000.00
G1 X48.3499 Y47.9234 F1000.00
G1 X48.3582 Y47.9102 F1000.00
G1 X48.3684 Y47.8961 F1000.00
G1 X48.3874 Y47.8747 F1000.00
G1 X48.4014 Y47.8618 F1000.00
G1 X48.4137 Y47.8520 F1000.00
G1 X48.4318 Y47.8396 F1000.00
G1 X48.4601 Y47.8249 F1000.00
G1 X48.4721 Y47.8200 F1000.00
G1 X48.4980 Y47.8118 F1000.00
G1 X48.5114 Y47.8088 F1000.00
G1 X48.5332 Y47.8056 F1000.00
G1 X48.5571 Y47.8043 F1000.00
G1 X49.3170 Y47.8043 F1000.00
G1 X49.3170 Y47.7845 F1000.00
G1 X49.0571 Y47.7845 F1000.00
G1 X49.0332 Y47.7832 F1000.00
G1 X49.0114 Y47.7800 F1000.00
G1 X48.9853 Y47.7734 F1000.00
G1 X48.9601 Y47.7639 F1000.00
G1 X48.9460 Y47.7571 F1000.00
G1 X48.9318 Y47.7492 F1000.00
G1 X48.9137 Y47.7368 F1000.00
G1 X48.8931 Y47.7195 F1000.00
G1 X48.8820 Y47.7084 F1000.00
G1 X48.8684 Y47.6927 F1000.00
G1 X48.8523 Y47.6697 F1000.00
G1 X48.8376 Y47.6414 F1000.00
G1 X48.8327 Y47.6294 F1000.00
G1 X48.8250 Y47.6054 F1000.00
G1 X48.8197 Y47.5791 F1000.00
G1 X48.8183 Y47.5683 F1000.00
G1 X48.8170 Y47.5444 F1000.00
G1 X48.8183 Y47.5205 F1000.00
G1 X48.8197 Y47.5097 F1000.00
G1 X48.8250 Y47.4834 F1000.00
G1 X48.8327 Y47.4594 F1000.00
G1 X48.8376 Y47.4474 F1000.00
G1 X48.8523 Y47.4191 F1000.00
G1 X48.8684 Y47.3961 F1000.00
G1 X48.8820 Y47.3804 F1000.00
G1 X48.8931 Y47.3693 F1000.00
G1 X48.9137 Y47.3520 F1000.00
G1 X48.9318 Y47.3396 F1000.00
G1 X48.9460 Y47.3317 F1000.00
G1 X48.9601 Y47.3249 F1000.00
G1 X48.9853 Y47.3154 F1000.00
G1 X49.0114 Y47.3088 F1000.00
G1 X49.0332 Y47.3056 F1000.00
G1 X49.0571 Y47.3043 F1000.00
G1 X49.3170 Y47.3043 F1000.00
G1 X49.3170 Y47.2845 F1000.00
G1 X48.5571 Y47.2845 F1000.00
G1 X48.5332 Y47.2832 F1000.00
G1 X48.5114 Y47.2800 F1000.00
G1 X48.4980 Y47.2770 F1000.00
G1 X48.4721 Y47.2688 F1000.00
G1 X48.4601 Y47.2639 F1000.00
G1 X48.4318 Y47.2492 F1000.00
G1 X48.4137 Y47.2368 F1000.00
G1 X48.4014 Y47.2270 F1000.00
G1 X48.3874 Y47.2141 F1000.00
G1 X48.3684 Y47.1927 F1000.00
G1 X48.3582 Y47.1786 F1000.00
G1 X48.3499 Y47.1654 F1000.00
G1 X48.3376 Y47.1414 F1000.00
G1 X48.3327 Y47.1294 F1000.00
G1 X48.3250 Y47.1054 F1000.00
G1 X48.3215 Y47.0901 F1000.00
G1 X48.3183 Y47.0683 F1000.00
G1 X48.3170 Y47.0444 F1000.00
G1 X48.3183 Y47.0205 F1000.00
G1 X48.3215 Y46.9987 F1000.00
G1 X48.3250 Y46.9834 F1000.00
G1 X48.3327 Y46.9594 F1000.00
G1 X48.3376 Y46.9474 F1000.00
G1 X48.3499 Y46.9234 F1000.00
G1 X48.3582 Y46.9102 F1000.00
G1 X48.3684 Y46.8961 F1000.00
G1 X48.3874 Y46.8747 F1000.00
G1 X48.4014 Y46.8618 F1000.00
G1 X48.4137 Y46.8520 F1000.00
G1 X48.4318 Y46.8396 F1000.00
G1 X48.4601 Y46.8249 F1000.00
G1 X48.4721 Y46.8200 F1000.00
G1 X48.4980 Y46.8118 F1000.00
G1 X48.5114 Y46.8088 F1000.00
G1 X48.5332 Y46.8056 F1000.00
G1 X48.5571 Y46.8043 F1000.00
G1 X49.3170 Y46.8043 F1000.00
G1 X49.3170 Y46.7845 F1000.00
G1 X49.0571 Y46.7845 F1000.00
G1 X49.0332 Y46.7832 F1000.00
G1 X49.0114 Y46.7800 F1000.00
G1 X48.9853 Y46.7734 F1000.00
G1 X48.9601 Y46.7639 F1000.00
G1 X48.9460 Y46.7571 F1000.00
G1 X48.9318 Y46.7492 F1000.00
G1 X48.9137 Y46.7368 F1000.00
G1 X48.8931 Y46.7195 F1000.00
G1 X48.8820 Y46.7084 F1000.00
G1 X48.8684 Y46.6927 F1000.00
G1 X48.8523 Y46.6697 F1000.00
G1 X48.8376 Y46.6414 F1000.00
G1 X48.8327 Y46.6294 F1000.00
G1 X48.8250 Y46.6054 F1000.00
G1 X48.8197 Y46.5791 F1000.00
G1 X48.8183 Y46.5683 F1000.00
G1 X48.8170 Y46.5444 F1000.00
G1 X48.8183 Y46.5205 F1000.00
G1 X48.8197 Y46.5097 F1000.00
G1 X48.8250 Y46.4834 F1000.00
G1 X48.8327 Y46.4594 F1000.00
G1 X48.8376 Y46.4474 F1000.00
G1 X48.8523 Y46.4191 F1000.00
G1 X48.8684 Y46.3961 F1000.00
G1 X48.8820 Y46.3804 F1000.00
G1 X48.8931 Y46.3693 F1000.00
G1 X48.9137 Y46.3520 F1000.00
G1 X48.9318 Y46.3396 F1000.00
G1 X48.9460 Y46.3317 F1000.00
G1 X48.9601 Y46.3249 F1000.00
G1 X48.9853 Y46.3154 F1000.00
G1 X49.0114 Y46.3088 F1000.00
G1 X49.0332 Y46.3056 F1000.00
G1 X49.0571 Y46.3043 F1000.00
G1 X49.3170 Y46.3043 F1000.00
G1 X49.3170 Y46.2845 F1000.00
G1 X48.5571 Y46.2845 F1000.00
G1 X48.5332 Y46.2832 F1000.00
G1 X48.5114 Y46.2800 F1000.00
G1 X48.4980 Y46.2770 F1000.00
G1 X48.4721 Y46.2688 F1000.00
G1 X48.4601 Y46.2639 F1000.00
G1 X48.4318 Y46.2492 F1000.00
G1 X48.4137 Y46.2368 F1000.00
G1 X48.4014 Y46.2270 F1000.00
G1 X48.3874 Y46.2141 F1000.00
G1 X48.3684 Y46.1927 F1000.00
G1 X48.3582 Y46.1786 F1000.00
G1 X48.3499 Y46.1654 F1000.00
G1 X48.3376 Y46.1414 F1000.00
G1 X48.3327 Y46.1294 F1000.00
G1 X48.3250 Y46.1054 F1000.00
G1 X48.3215 Y46.0901 F1000.00
G1 X48.3183 Y46.0683 F1000.00
G1 X48.3170 Y46.0444 F1000.00
G1 X48.3183 Y46.0205 F1000.00
G1 X48.3215 Y45.9987 F1000.00
G1 X48.3250 Y45.9834 F1000.00
G1 X48.3327 Y45.9594 F1000.00
G1 X48.3376 Y45.9474 F1000.00
G1 X48.3499 Y45.9234 F1000.00
G1 X48.3582 Y45.9102 F1000.00
G1 X48.3684 Y45.8961 F1000.00
G1 X48.3874 Y45.8747 F1000.00
G1 X48.4014 Y45.8618 F1000.00
G1 X48.4137 Y45.8520 F1000.00
G1 X48.4318 Y45.8396 F1000.00
G1 X48.4601 Y45.8249 F1000.00
G1 X48.4721 Y45.8200 F1000.00
G1 X48.4980 Y45.8118 F1000.00
G1 X48.5114 Y45.8088 F1000.00
G1 X48.5332 Y45.8056 F1000.00
G1 X48.5571 Y45.8043 F1000.00
G1 X49.3170 Y45.8043 F1000.00
G1 X49.3170 Y45.7845 F1000.00
G1 X49.0571 Y45.7845 F1000.00
G1 X49.0332 Y45.7832 F1000.00
G1 X49.0114 Y45.7800 F1000.00
G1 X48.9853 Y45.7734 F1000.00
G1 X48.9601 Y45.7639 F1000.00
G1 X48.9460 Y45.7571 F1000.00
G1 X48.9318 Y45.7492 F1000.00
G1 X48.9137 Y45.7368 F1000.00
G1 X48.8931 Y45.7195 F1000.00
G1 X48.8820 Y45.7084 F1000.00
G1 X48.8684 Y45.6927 F1000.00
G1 X48.8523 Y45.6697 F1000.00
G1 X48.8376 Y45.6414 F1000.00
G1 X48.8327 Y45.6294 F1000.00
G1 X48.8250 Y45.6054 F1000.00
G1 X48.8197 Y45.5791 F1000.00
G1 X48.8183 Y45.5683 F1000.00
G1 X48.8170 Y45.5444 F1000.00
G1 X48.8183 Y45.5205 F1000.00
G1 X48.8197 Y45.5097 F1000.00
G1 X48.8250 Y45.4834 F1000.00
G1 X48.8327 Y45.4594 F1000.00
G1 X48.8376 Y45.4474 F1000.00
G1 X48.8523 Y45.4191 F1000.00
G1 X48.8684 Y45.3961 F1000.00
G1 X48.8820 Y45.3804 F1000.00
G1 X48.8931 Y45.3693 F1000.00
G1 X48.9137 Y45.3520 F1000.00
G1 X48.9318 Y45.3396 F1000.00
G1 X48.9460 Y45.3317 F1000.00
G1 X48.9601 Y45.3249 F1000.00
G1 X48.9853 Y45.3154 F1000.00
G1 X49.0114 Y45.3088 F1000.00
G1 X49.0332 Y45.3056 F1000.00
G1 X49.0571 Y45.3043 F1000.00
G1 X49.3170 Y45.3043 F1000.00
G1 X49.3170 Y45.2845 F1000.00
G1 X48.0571 Y45.2845 F1000.00
G1 X48.0332 Y45.2832 F1000.00
G1 X48.0224 Y45.2818 F1000.00
G1 X47.9980 Y45.2770 F1000.00
G1 X47.9853 Y45.2734 F1000.00
G1 X47.9601 Y45.2639 F1000.00
G1 X47.9460 Y45.2571 F1000.00
G1 X47.9318 Y45.2492 F1000.00
G1 X47.9088 Y45.2331 F1000.00
G1 X47.8874 Y45.2141 F1000.00
G1 X47.8745 Y45.2001 F1000.00
G1 X47.8647 Y45.1878 F1000.00
G1 X47.8523 Y45.1697 F1000.00
G1 X47.8444 Y45.1555 F1000.00
G1 X47.8327 Y45.1294 F1000.00
G1 X47.8250 Y45.1054 F1000.00
G1 X47.8215 Y45.0901 F1000.00
G1 X47.8183 Y45.0683 F1000.00
G1 X47.8173 Y45.0522 F1000.00
G1 X47.8179 Y45.0253 F1000.00
G1 X47.8197 Y45.0097 F1000.00
G1 X47.8245 Y44.9853 F1000.00
G1 X47.8327 Y44.9594 F1000.00
G1 X47.8444 Y44.9333 F1000.00
G1 X47.8523 Y44.9191 F1000.00
G1 X47.8647 Y44.9010 F1000.00
G1 X47.8745 Y44.8887 F1000.00
G1 X47.8874 Y44.8747 F1000.00
G1 X47.9088 Y44.8557 F1000.00
G1 X47.9318 Y44.8396 F1000.00
G1 X47.9460 Y44.8317 F1000.00
G1 X47.9601 Y44.8249 F1000.00
G1 X47.9853 Y44.8154 F1000.00
G1 X47.9980 Y44.8118 F1000.00
G1 X48.0224 Y44.8070 F1000.00
G1 X48.0332 Y44.8056 F1000.00
G1 X48.0571 Y44.8043 F1000.00
G1 X49.3170 Y44.8043 F1000.00
G1 X49.3170 Y44.7845 F1000.00
G1 X49.0571 Y44.7845 F1000.00
G1 X49.0332 Y44.7832 F1000.00
G1 X49.0114 Y44.7800 F1000.00
G1 X48.9853 Y44.7734 F1000.00
G1 X48.9601 Y44.7639 F1000.00
G1 X48.9460 Y44.7571 F1000.00
G1 X48.9318 Y44.7492 F1000.00
G1 X48.9137 Y44.7368 F1000.00
G1 X48.8931 Y44.7195 F1000.00
G1 X48.8820 Y44.7084 F1000.00
G1 X48.8684 Y44.6927 F1000.00
G1 X48.8523 Y44.6697 F1000.00
G1 X48.8376 Y44.6414 F1000.00
G1 X48.8327 Y44.6294 F1000.00
G1 X48.8250 Y44.6054 F1000.00
G1 X48.8197 Y44.5791 F1000.00
G1 X48.8183 Y44.5683 F1000.00
G1 X48.8170 Y44.5444 F1000.00
G1 X48.8183 Y44.5205 F1000.00
G1 X48.8197 Y44.5097 F1000.00
G1 X48.8250 Y44.4834 F1000.00
G1 X48.8327 Y44.4594 F1000.00
G1 X48.8376 Y44.4474 F1000.00
G1 X48.8523 Y44.4191 F1000.00
G1 X48.8684 Y44.3961 F1000.00
G1 X48.8820 Y44.3804 F1000.00
G1 X48.8931 Y44.3693 F1000.00
G1 X48.9137 Y44.3520 F1000.00
G1 X48.9318 Y44.3396 F1000.00
G1 X48.9460 Y44.3317 F1000.00
G1 X48.9601 Y44.3249 F1000.00
G1 X48.9853 Y44.3154 F1000.00
G1 X49.0114 Y44.3088 F1000.00
G1 X49.0332 Y44.3056 F1000.00
G1 X49.0571 Y44.3043 F1000.00
G1 X49.3170 Y44.3043 F1000.00
G1 X49.3170 Y44.2845 F1000.00
G1 X48.5571 Y44.2845 F1000.00
G1 X48.5332 Y44.2832 F1000.00
G1 X48.5114 Y44.2800 F1000.00
G1 X48.4980 Y44.2770 F1000.00
G1 X48.4721 Y44.2688 F1000.00
G1 X48.4601 Y44.2639 F1000.00
G1 X48.4318 Y44.2492 F1000.00
G1 X48.4137 Y44.2368 F1000.00
G1 X48.4014 Y44.2270 F1000.00
G1 X48.3874 Y44.2141 F1000.00
G1 X48.3684 Y44.1927 F1000.00
G1 X48.3582 Y44.1786 F1000.00
G1 X48.3499 Y44.1654 F1000.00
G1 X48.3376 Y44.1414 F1000.00
G1 X48.3327 Y44.1294 F1000.00
G1 X48.3250 Y44.1054 F1000.00
G1 X48.3215 Y44.0901 F1000.00
G1 X48.3183 Y44.0683 F1000.00
G1 X48.3170 Y44.0444 F1000.00
G1 X48.3183 Y44.0205 F1000.00
G1 X48.3215 Y43.9987 F1000.00
G1 X48.3250 Y43.9834 F1000.00
G1 X48.3327 Y43.9594 F1000.00
G1 X48.3376 Y43.9474 F1000.00
G1 X48.3499 Y43.9234 F1000.00
G1 X48.3582 Y43.9102 F1000.00
